X: 4
T: Siobhan O'Donnell's
R: reel
M: 4/4
L: 1/8
K: Amaj
|:A2 (3cde a2ba|f3a fe (3cde|effe cBAF|EFAB cBAF|
|E3F ABce|f2af fe (3cde|efec dBcA|BAGB cAec:||
|:A2 (3cde fe (3cde|fA A2 fAeA|fA A2 fAef|aefa eA (3cde|
effe cBAF|E3F AB (3cde|f2ec dBcA|BAGB cAec:||


Tune 729	Setting 30057

